X: 20452
Q: "Moderate."
M: 2/4
L: 1/8
K: D
f2 ed | f2 ed |
ea aa | ea za |\
f2 ed | f2 ed | c2 dB | A2 HzA |\
f2 fe | {e}d2 dc | cBed | dcBA |\
d2 dc | c HB2 A | A>BAF | E2 AA |\


